public/icons/monitor.svg

<svg width="84" height="84" viewBox="0 0 84 84" fill="none" xmlns="http://www.w3.org/2000/svg">
<path d="M7.875 15.75V55.125C7.875 58.0125 10.2375 60.375 13.125 60.375H70.875C73.7625 60.375 76.125 58.0125 76.125 55.125V15.75C76.125 12.8625 73.7625 10.5 70.875 10.5H13.125C10.2375 10.5 7.875 12.8625 7.875 15.75Z" stroke="white" stroke-width="2" stroke-miterlimit="10" stroke-linecap="round" stroke-linejoin="round"/>
<path d="M7.875 49.875H76.125" stroke="white" stroke-width="2" stroke-miterlimit="10" stroke-linecap="round" stroke-linejoin="round"/>
<path d="M23.625 76.125H60.375" stroke="white" stroke-width="2" stroke-miterlimit="10" stroke-linecap="round" stroke-linejoin="round"/>
<path d="M34.1254 60.375C34.1254 65.8875 32.2879 72.45 29.4004 76.125" stroke="white" stroke-width="2" stroke-miterlimit="10" stroke-linecap="round" stroke-linejoin="round"/>
<path d="M54.6 76.125C51.7125 72.45 49.875 65.8875 49.875 60.375" stroke="white" stroke-width="2" stroke-miterlimit="10" stroke-linecap="round" stroke-linejoin="round"/>
</svg>

<svg xmlns="http://www.w3.org/2000/svg" fill="none" width="84" height="84" viewBox="0 0 84 84"><path d="M7.875 15.75v39.375c0 2.888 2.363 5.25 5.25 5.25h57.75c2.888 0 5.25-2.362 5.25-5.25V15.75c0-2.887-2.362-5.25-5.25-5.25h-57.75c-2.887 0-5.25 2.363-5.25 5.25zm0 34.125h68.25m-52.5 26.25h36.75m-26.25-15.75c0 5.513-1.837 12.075-4.725 15.75m25.2 0c-2.888-3.675-4.725-10.237-4.725-15.75" stroke="#fff" stroke-linecap="round" stroke-linejoin="round" stroke-miterlimit="10" stroke-width="2"/></svg>
